Assets/Icons/navigation/undo.svg

<svg enable-background="new 0 0 60 60" viewBox="0 0 60 60" xmlns="http://www.w3.org/2000/svg"><path d="m56.5 17.5h-49.88l10.67-10.67c.98-.98.98-2.56 0-3.54-.2-.2-.51-.2-.71 0l-14.29 14.3c-.78.78-.78 2.05 0 2.83l14.29 14.29c.2.2.51.2.71 0 .98-.98.98-2.56 0-3.54l-10.67-10.67h48.88v25c0 4.69-3.81 8.5-8.5 8.5h-41.5c-1.38 0-2.49 1.11-2.5 2.49 0 .28.22.51.5.51h43.5c6.35 0 11.5-5.15 11.5-11.5v-26c0-1.1-.9-2-2-2z"/></svg>

<?xml version="1.0" encoding="utf-8"?>
<!-- Generator: Adobe Illustrator 21.1.0, SVG Export Plug-In . SVG Version: 6.00 Build 0)  -->
<svg version="1.1" id="eps" xmlns="http://www.w3.org/2000/svg" xmlns:xlink="http://www.w3.org/1999/xlink" x="0px" y="0px"
	 viewBox="0 0 60 60" style="enable-background:new 0 0 60 60;" xml:space="preserve">
<path d="M56.5,17.5H6.62L17.29,6.83c0.98-0.98,0.98-2.56,0-3.54c-0.2-0.2-0.51-0.2-0.71,0L2.29,17.59c-0.78,0.78-0.78,2.05,0,2.83
	l14.29,14.29c0.2,0.2,0.51,0.2,0.71,0c0.98-0.98,0.98-2.56,0-3.54L6.62,20.5H55.5v25c0,4.69-3.81,8.5-8.5,8.5H5.5
	c-1.38,0-2.49,1.11-2.5,2.49C3,56.77,3.22,57,3.5,57H47c6.35,0,11.5-5.15,11.5-11.5v-26C58.5,18.4,57.6,17.5,56.5,17.5z"/>
</svg>
